img/loca_pink.svg

<svg width="37" height="37" viewBox="0 0 37 37" fill="none" xmlns="http://www.w3.org/2000/svg">
<path fill-rule="evenodd" clip-rule="evenodd" d="M18.5 37C28.7173 37 37 28.7173 37 18.5C37 8.28273 28.7173 0 18.5 0C8.28273 0 0 8.28273 0 18.5C0 28.7173 8.28273 37 18.5 37ZM18.5 17.8906L14.367 11L9.34043 23.1406H8V25H15.3723V23.1406H14.367L15.3723 20.2969L18.5 25L21.6277 20.2969L22.7447 23.1406H21.6277V25H29V23.1406H27.7713L22.7447 11L18.5 17.8906Z" fill="#F4A6AF"/>
</svg>

<svg width="37" height="37" fill="none" xmlns="http://www.w3.org/2000/svg"><path fill-rule="evenodd" clip-rule="evenodd" d="M18.5 37C28.717 37 37 28.717 37 18.5S28.717 0 18.5 0 0 8.283 0 18.5 8.283 37 18.5 37zm0-19.11L14.367 11 9.34 23.14H8V25h7.372v-1.86h-1.005l1.005-2.843L18.5 25l3.128-4.703 1.117 2.844h-1.117V25H29v-1.86h-1.229L22.745 11 18.5 17.89z" fill="#F4A6AF"/></svg>
